X:1
T:Your shining eyes - Bateson
T:James Gibb editions
T:#
%%score [ 1 2 3 ] { ( 4 5 ) | 6 }
L:1/8
Q:1/4=108
M:4/4
K:F
V:1 treble nm="Soprano" snm="S"
V:2 treble nm="Alto" snm="A"
V:3 treble-8 nm="Tenor" snm="T"
V:4 treble nm="Practice"
V:5 treble 
V:6 bass 
V:1
!p!"^Thomas Bateson\n(l575-1630)" A2"^Your shining eyes" AG F3 G | A2 G2 A4 | A2 AB c2 A2 | %3
w: Your shin- ing eyes and|gold- en hair,|your li- ly- ros- ed|
 G2 G2 A4 | A2 EF G3 D |[M:4/4] F2 E2 D4 | z2 A2 A2 A2 | G2 D2 F2 (ED) | E3 c c2 c2 | B2 A2 A2 G2 | %10
w: lips most fair,|Your o- ther beau- ties|that ex- cel,|your o- ther|beau- ties that ex\- *|cel, your o- ther|beau- ties that ex-|
 A8 | z4!f! d2 cB | c2 A2 B3 c | A4 A2 GF | G2 D2 F2 E2 | ^F4 z2!p! A2 | A3 B c4- | c2 B2 A2 G2 | %18
w: cel,|Men can- not|choose but like them|well, men can- not|choose but like them|well: But|when for them|* they say they'll|
 A3 A G2 F2 | E4 z2!f! d2 | B2 G2 c3 B | A2 G2 A4 | z2 A2 F2 D2 | B3 A G2 F2 | E4 A4 | B4 G4 | %26
w: die, they say they'll|die, Be-|lieve them not, they|do but lie,|be- lieve them|not, they do but|lie, be-|lieve them|
 c3 B A2 G2 | F2 D2 G4- | G2 F2 E2 D2 | (E2 F2) E4 | ^F4 z2!p! A2 | A3 B c4- | c2 B2 A2 G2 | %33
w: not, they do but|lie, be- lieve|* them not, they|do * but|lie. But|when for them|* they say they'll|
 A3 A G2 F2 | E4 z2!f! d2 | B2 G2 c3 B | A2 G2 A4 | z2 A2 F2 D2 | B3 A G2 F2 | E4 A4 | B4 G4 | %41
w: die, they say they'll|die, Be-|lieve them not, they|do but lie,|be- lieve them|not, they do but|lie, be-|lieve them|
 c3 B A2 G2 | F2 D2 G4- | %43
w: not, they do but|lie, be- lieve|
 G2[Q:1/4=107][Q:1/4=107] F2[Q:1/4=105][Q:1/4=105] E2[Q:1/4=103][Q:1/4=103] D2 | %44
w: * them not, they|
[Q:1/4=101][Q:1/4=101] (E2[Q:1/4=100][Q:1/4=100] F2)[Q:1/4=97][Q:1/4=97] E4 | %45
w: do * but|
[Q:1/4=96][Q:1/4=96] ^F16 |] %46
w: lie.|
V:2
!p! F2 FE D2 D2 | D2 D2 ^C4 | =C2 ED E2 F2 | F2 E2 F4 | F2 CD E2 D2 |[M:4/4] D2 ^C2 D2 F2 | %6
w: Your shin- ing eyes and|gold- en hair,|your li- ly- ros- ed|lips most fair,|Your o- ther beau- ties|that ex- cel, your|
 F2 F2 E2 C2 | D6 (^C=B,) | ^C2 E2 E3 F | G2 (FE) D2 D2 | ^C4!f! F2 ED | E2 A2 F2 G2 | %12
w: o- ther beau- ties|that ex\- *|cel, your o- ther|beau- ties * that ex-|cel, Men can- not|choose but like them|
 A2 F2 F2 E2 | F4 F2 CD | E2 D2 D2 ^C2 | D4 z2!p! F2 | F3 G A2 (GF | E2) F4 E2 | F3 F E2 D2 | %19
w: well, men can- not|choose, men can- not|choose but like them|well: But|when for them they *|* say they'll|die, they say they'll|
 ^C2!f! A2 F2 D2 | G3 F (ED) E2 | F2 D2 ^C2 E2 | F4 D4 | G3 F E2 D2 | ^C2 A2 F2 D2 | G3 F ED (C2- | %26
w: die, Be- lieve them|not, they do * but|lie, but lie, be-|lieve them|not, they do but|lie, be- lieve them|not, they do but lie,|
 CD) E2 F3 E | D2 F2 E2 D2 | ^C2 A,2 D4- | D4 ^C4 | D4 z2!p! F2 | F3 G A2 (GF) | (E2 F4) E2 | %33
w: * * be- lieve them|not, they do but|lie, they do|* but|lie. But|when for them they *|say * they'll|
 F3 F E2 D2 | ^C2!f! A2 F2 D2 | G3 F (ED) E2 | F2 D2 ^C2 E2 | F4 D4 | G3 F E2 D2 | ^C2 A2 F2 D2 | %40
w: die, they say they'll|die, Be- lieve them|not, they do * but|lie, but lie, be-|lieve them|not, they do but|lie, be- lieve them|
 G3 F ED (C2- | CD) E2 F3 E | D2 F2 E2 D2 | ^C2 A,2 D4- | D4 ^C4 | D16 |] %46
w: not, they do but lie,|* * be- lieve them|not, they do but|lie, they do|* but|lie.|
V:3
!p! D2 DE F2 D2 | F2 B2 A4 | A2 cB A3 B | c2 C2 F4 | F2 AA (EF) G2 | %5
w: Your shin- ing eyes and|gold- en hair,|your li- ly- ros- ed|lips most fair,|Your o- ther beau\- * ties|
[M:4/4][K:treble-8] D2 A2 D2 d2 | d2 d2 c2 A2 | B2 B2 A4 | z2 A2 A2 A2 | G2 A2 B2 B2 | %10
w: that ex- cel, your|o- ther beau- ties|that ex- cel,|your o- ther|beau- ties that ex-|
 A4!f! d2 cB | c2 A2 B2 B2 | A2 A2 G2 G2 | F4 F2 ED | ^C2 D2 A2 A2 | D4 z2!p! d2 | d3 d c2 c2 | %17
w: cel, Men can- not|choose but like them|well, men can- not|choose, men can- not|choose but like them|well: But|when for them they|
 c4 c4 | F3 F C2 D2 | A2!f! A2 B4 | G4 A3 G | F2 B2 A2 A2 | F2 D2 B3 A | G4 G4 | A4 z2 d2 | %25
w: say they'll|die, they say they'll|die, Be- lieve|them not, they|do but lie, be-|lieve them not, they|do but|lie, be-|
 B2 G2 c3 B | A3 G F4- | F4 G4 | A8- | A4 A4 | D4 z2!p! d2 | d3 d c2 c2 | c4 c4 | F3 F C2 D2 | %34
w: lieve them not, they|do but lie|* they|do|* but|lie. But|when for them they|say they'll|die, they say they'll|
 A2!f! A2 B4 | G4 A3 G | F2 B2 A2 A2 | F2 D2 B3 A | G4 G4 | A4 z2 d2 | B2 G2 c3 B | A3 G F4- | %42
w: die, Be- lieve|them not, they|do but lie, be-|lieve them not, they|do but|lie, be-|lieve them not, they|do but lie,|
 F4 G4 | A8- | A4 A4 | D16 |] %46
w: * they|do|* but|lie.|
V:4
 A2 AG F3 G | A2 G2 A4 | A2 AB c2 A2 | [FG]2 G2 A4 | A2 EF G3 D |[M:4/4] F2 E2 D4 | x2 A2 A2 A2 | %7
 G2 D2 F2 ED | E3 c c2 c2 | B2 A2 A2 G2 | A8 | x4 d2 cB | c2 A2 B3 c | A4 A2 GF | G2 D2 F2 E2 | %15
 ^F4 z2 A2 | A3 B c4- | c2 B2 A2 G2 | A3 A G2 F2 | E4 x2 d2 | B2 G2 c3 B | A2 G2 A4 | z2 A2 F2 D2 | %23
 B3 A G2 F2 | E4 A4 | B4 G4 | c3 B A2 G2 | F2 D2 G4- | G2 F2 E2 D2 | E2 F2 E4 | ^F4 z2 A2 | %31
 A3 B c4- | c2 B2 A2 G2 | A3 A G2 F2 | E4 x2 d2 | B2 G2 c3 B | A2 G2 A4 | z2 A2 F2 D2 | %38
 B3 A G2 F2 | E4 A4 | B4 G4 | c3 B A2 G2 | F2 D2 G4- | G2 F2 E2 D2 | E2 F2 E4 | ^F16 |] %46
V:5
 F2 FE D2 D2 | D2 D2 ^C4 | C2 ED E2 F2 | F2 E2 F4 | F2 CD E2 D2 |[M:4/4] D2 ^C2 D2 F2 | %6
 F2 F2 E2 C2 | D6 ^C=B, | ^C2 E2 E3 F | G2 FE D2 D2 | ^C4 F2 ED | E2 A2 F2 G2 | A2 F2 F2 E2 | %13
 F4 F2 CD | E2 D2 D2 ^C2 | D4 z2 =F2 | F3 G A2 GF | E2 F4 E2 | F3 F E2 D2 | ^C2 A2 F2 D2 | %20
 G3 F ED E2 | F2 D2 ^C2 E2 | F4 D4 | G3 F E2 D2 | ^C2 A2 F2 D2 | G3 F ED C2- | CD E2 F3 E | %27
 D2 F2 E2 D2 | ^C2 A,2 D4- | D4 ^C4 | D4 z2 =F2 | F3 G A2 GF | E2 F4 E2 | F3 F E2 D2 | %34
 ^C2 A2 F2 D2 | G3 F ED E2 | F2 D2 ^C2 E2 | F4 D4 | G3 F E2 D2 | ^C2 A2 F2 D2 | G3 F ED C2- | %41
 CD E2 F3 E | D2 F2 E2 D2 | ^C2 A,2 D4- | D4 ^C4 | D16 |] %46
V:6
 D,2 D,E, F,2 D,2 | F,2 B,2 A,4 | A,2 CB, A,3 B, | C2 C,2 F,4 | F,2 A,A, E,F, G,2 | %5
[M:4/4] D,2 A,2 D,2 D2 | D2 D2 C2 A,2 | B,2 B,2 A,4 | z2 A,2 A,2 A,2 | G,2 A,2 B,2 B,2 | %10
 A,4 D2 CB, | C2 A,2 B,2 B,2 | A,2 A,2 G,2 G,2 | F,4 F,2 E,D, | ^C,2 D,2 A,2 A,2 | D,4 z2 D2 | %16
 D3 D C2 C2 | C4 C4 | F,3 F, C,2 D,2 | A,2 A,2 B,4 | G,4 A,3 G, | F,2 B,2 A,2 A,2 | %22
 F,2 D,2 B,3 A, | G,4 G,4 | A,4 z2 D2 | B,2 G,2 C3 B, | A,3 G, F,4- | F,4 G,4 | A,8- | A,4 A,4 | %30
 D,4 z2 D2 | D3 D C2 C2 | C4 C4 | F,3 F, C,2 D,2 | A,2 A,2 B,4 | G,4 A,3 G, | F,2 B,2 A,2 A,2 | %37
 F,2 D,2 B,3 A, | G,4 G,4 | A,4 z2 D2 | B,2 G,2 C3 B, | A,3 G, F,4- | F,4 G,4 | A,8- | A,4 A,4 | %45
 D,16 |] %46

